app/assets/icons/profile_icon.svg

<svg width="25" height="24" viewBox="0 0 25 24" fill="none" xmlns="http://www.w3.org/2000/svg">
<path d="M21.5 12.0001C21.503 13.7869 20.9715 15.5337 19.974 17.0161C19.1514 18.2431 18.0391 19.2484 16.7355 19.9433C15.4319 20.6382 13.9772 21.0011 12.5 21.0001C11.0228 21.0011 9.56808 20.6382 8.26451 19.9433C6.96093 19.2484 5.84865 18.2431 5.026 17.0161C4.24273 15.8485 3.7439 14.5137 3.56951 13.1186C3.39511 11.7234 3.55 10.3069 4.02175 8.98239C4.4935 7.65793 5.269 6.4624 6.28607 5.49167C7.30314 4.52093 8.5335 3.80198 9.87851 3.39245C11.2235 2.98292 12.6458 2.89421 14.0312 3.13342C15.4167 3.37263 16.7269 3.93311 17.8567 4.76993C18.9865 5.60675 19.9046 6.69664 20.5373 7.95221C21.17 9.20779 21.4997 10.5941 21.5 12.0001Z" stroke="#222222"/>
<path d="M5.66637 17.856L5.18637 17.714L5.10938 17.975L5.28637 18.182L5.66637 17.856ZM19.3344 17.856L19.7144 18.182L19.8914 17.975L19.8134 17.714L19.3344 17.856ZM9.50037 15.5H15.5004V14.5H9.50037V15.5ZM9.50037 14.5C8.53131 14.5002 7.58817 14.813 6.81112 15.3921C6.03408 15.9711 5.46362 16.7854 5.18637 17.714L6.14537 17.999C6.36123 17.2769 6.80429 16.6437 7.40872 16.1935C8.01315 15.7433 8.7467 15.5001 9.50037 15.5V14.5ZM12.5004 20.5C11.2736 20.5013 10.0612 20.2364 8.9468 19.7237C7.83237 19.2109 6.84246 18.4625 6.04537 17.53L5.28637 18.182C6.17743 19.2238 7.28381 20.0599 8.52924 20.6327C9.77468 21.2055 11.1295 21.5014 12.5004 21.5V20.5ZM15.5004 15.5C16.2542 15.5001 16.9878 15.7435 17.5923 16.1939C18.1967 16.6443 18.6397 17.2777 18.8554 18L19.8134 17.714C19.5361 16.7854 18.9667 15.9711 18.1896 15.3921C17.4126 14.813 16.4694 14.5002 15.5004 14.5V15.5ZM18.9554 17.53C18.1583 18.4625 17.1684 19.2109 16.0539 19.7237C14.9395 20.2364 13.7271 20.5013 12.5004 20.5V21.5C13.8712 21.5014 15.2261 21.2055 16.4715 20.6327C17.7169 20.0599 18.8233 19.2238 19.7144 18.182L18.9554 17.53Z" fill="#222222"/>
<circle cx="12.5" cy="9" r="3.5" stroke="#222222"/>
</svg>

<svg width="25" height="24" fill="none" xmlns="http://www.w3.org/2000/svg"><path d="M21.5 12a8.958 8.958 0 0 1-1.526 5.016A8.99 8.99 0 0 1 12.5 21a8.99 8.99 0 0 1-8.93-7.881A9 9 0 1 1 21.5 12Z" stroke="#222"/><path d="m5.666 17.856-.48-.142-.077.261.177.207.38-.326Zm13.668 0 .38.326.177-.207-.078-.261-.479.142ZM9.5 15.5h6v-1h-6v1Zm0-1a4.502 4.502 0 0 0-4.314 3.214l.96.285A3.502 3.502 0 0 1 9.5 15.5v-1Zm3 6a8.48 8.48 0 0 1-6.455-2.97l-.759.652A9.48 9.48 0 0 0 12.5 21.5v-1Zm3-5a3.502 3.502 0 0 1 3.355 2.5l.958-.286A4.502 4.502 0 0 0 15.5 14.5v1Zm3.455 2.03A8.48 8.48 0 0 1 12.5 20.5v1a9.48 9.48 0 0 0 7.214-3.318l-.759-.652Z" fill="#222"/><circle cx="12.5" cy="9" r="3.5" stroke="#222"/></svg>
